X: 14367
T: Galope De Baie St-Paul
R: reel
M: 4/4
K: Dmajor
DE FG A2 FA|d2 F2 A3 e|f2 ed c2 A2|BA Bc B2 A2|
DE FG A2 FA|d2 F2 A3 e|f2 ed c2 A2|BA Bc d3 A:|
A2 de f2 ed|e2 f2 g3 a|B3 c BA AG|FG AB A3 f|
A2 de f2 ed|e2 f2 g4|B3 c BA AA|B2 c2 d4:|

